!!!SOCIAL_FUNCTION:	social songs
!!!PDT:	1943
!!!OTL: No_56_Social_Song_(b).krn
!!!REG: British Columbia
**kern
*staff1
=1-
*clefF4
*k[f#c#g#d#]
*M2/4
4r
8.G#\L
16F#\Jk
=2!|:
4F#\
12F#\L
12B\
12G#;\J
=3
[2G#\
=4
8.G#\L]
16F#\Jk
8F#\
8r
=5||
*M3/4
8G#\L
24B\K
12G#\J
8.F#\L
16E\Jk
16G#\LK
8.F#\J
=6
4.F#\
8E\
8C#/L
8C#/J
=7
8F#\L
24A\K
12F#\J
8.E/L
16C#/Jk
4E\
=8
4.C#/
8BB/
4GG#/
=9
8C#/L
24E/K
12C#/J
8.BB/L
16GG#/Jk
4BB/
=10||
*M2/4
8GG#/L
8GG#/J
8GG#/L
8GG#/J
=11
=
8GG#/
8r
8.G#\L
16F#\Jk
=12:|!
2GG#/
==
*-
